X: 11677
T: Eileen's
R: waltz
M: 3/4
K: Dmajor
de|"D"f2 d2 d2|A4 de|f2 d2 c2|"G"B4 dc|B2 A2 A2|"D/F#"F4 dc|B2 A2 F2|"A7"E4 de|
"D"f2 d2 d2|A4 de|f2 g2 a2|"G"b4-ba|"A"ea-a3 f|"D"dA-A2 AB|"A"A3 F EF|"D"D6|
"G"B2 e3 d|"A"dc B2 A2|"G"d3 e fg|"D/F#"a4 fa|"Bm"b2 f3 b|"D"a2 f3 e|"D/F#"d2 c2 A2|"G"B4-BA|
"A"EA-A3 E|"D"FA - AF GA|"G"B2 c2 de|"A"e4 de|"D"f2 d2 d2|A4 dB|"A"A3 F EF|"D"D6|

